X: 22888
T: Lark's March, The
R: jig
M: 6/8
K: Dmajor
|:Add fdd|edd fdB|Add fdB|AFA B2 A|
Add fdB|ABA Aef|gfe fdB|AFA B2 d:|
|:Add fdd|edd fdd|Add fdd|edB BdB|
Add fdd|edB def|g2 e f2 d|edB BdB:|

